X: 022063
T: Brickyard (The)
C: Joe Liddy
S: "The Leitrim Fiddler" (Dublin 1981)
N: C sharp in second measure as written
L: 1/8
M: 6/8
R: jig
Q: 1/4 = 170
K: G
F | DGG DGG | A^cd fga | gfd dcA | cAG FEF |
DGG DGG | Acd fga | gfd cAF | AGG G2 :|
c | dgg gfg | aga gfd | cff Aff | cff agf |
[1 dgg gfg | aga fga | gfd cAF | AGG G2 :|
[2 dgg fga | gfd cdf | gfd cAF | AGG G3 ||
%%%%%%%%%%%%%%%
